X:1
T:Will Jesus Keep Me?
T:Ethel Perkins Crippen, 1907
T:Will Jesus Keep Me?
T:Public Domain
T:Public Domain
C:Ethel Perkins Crippen, 1907
Z:Public Domain
%%score ( 1 2 ) ( 3 4 )
L:1/8
M:4/4
K:Db
V:1 treble 
V:2 treble 
V:3 bass 
V:4 bass 
V:1
 [FA][DF][EG] | [FA]2 [FA]3 [FA][GB][DF] | [FA]2 [EG]3 [EG][CE][EG] | [Gc]3 [FB] [EA][GB][EG][CA] | %4
w: 1.~Will Je- sus|keep me, a- long life’s|jour- ney, Thro’ val- leys|dark, where mists of doubt an-|
w: 2.~Will Je- sus|keep me when all a-|round me The sub- tle|snares are set to trip my|
w: 3.~Will Je- sus|keep me till that bright|morn- ing When I shall|reach my Fa- ther’s house on|
 [DF]4 z [FA][DF][FA] | [Fd]2 [Fd]3 [FA][=E=G][FA] | [Ac]2 [GB]3 [GB][G=A][GB] | %7
w: noy? Will Je- sus|lead me, tho’ dim the|path- way, And with me|
w: feet? Will He in|mer- cy walk close be-|side me, To whis- per|
w: high; To share His|glo- ry thro’ end- less|ag- es, While bright and|
 [=Ge]3 [Gd] [Ec][Ed][DB][Ec] | (C2 E2 [GA]) ||"^Refrain" [Fd][Fc][FB] | [Gc]2 [Gc]3 [GB][FA][EG] | %11
w: climb the mount- ain heights of|joy? * *|||
w: words of cheer and coun- sel|sweet? * *|He will keep|me, if I but trust|
w: swift the joy- ous mo- ments|fly? * *|||
 [DF]2 [FA]3 [Fd][Fc][FB] | [Gc]2 [Gc]3 [GB][FA][GB] | [EG][CA] [DF]3 [FA][DF][FA] | %14
w: |||
w: Him Thro’ ev- ery tri-|al, with- out a doubt|or fear; Yes, He will guide|
w: |||
 [Af]2 [Af]3 [Ae][Ad][Ac] | [Ac]2 [GB]3 [=Ed][Ec][EB] | [FA]2 [Fd]2 [Gc][Ge][GB][Gc] | [Fd]4 z |] %18
w: ||||
w: me, if I but fol-|low Each step He leads,|till all my path is clear.||
w: ||||
V:2
 x3 | x8 | x8 | x8 | x8 | x8 | x8 | x8 | A4- x || x3 | x8 | x8 | x8 | x8 | x8 | x8 | x8 | x5 |] %18
w: ||||||||||||||||||
w: ||||||||Yes,||||||||||
V:3
 [D,A,][D,A,][D,A,] | [D,D]2 [D,D]3 [D,D][D,D][D,A,] | [A,D]2 [A,C]3 [A,,A,][A,,A,][A,,C] | %3
 [A,,E]3 [A,,D] [A,,C][A,,C][A,,C][A,,A,] | [D,A,]4 z [D,A,][D,A,][D,D] | %5
 [D,A,]2 [D,A,]3 [D,D][D,D][D,D] | [G,D]2 [G,D]3 [G,D][G,C][G,B,] | %7
 [E,B,]3 [E,B,] [E,A,][E,B,][E,=G,][E,G,] | (A,2 C2 [A,E]) || [D,A,][D,A,][D,A,] | %10
 [E,A,]2 [E,A,]3 [A,,A,][A,,A,][A,,A,] | [D,A,]2 [D,D]3 [D,A,][D,A,][D,A,] | %12
 [E,A,]2 [E,A,]3 [A,,A,][A,,A,][A,,A,] | [A,,A,][A,,A,] [D,A,]3 [D,A,][D,A,][D,D] | %14
 [D,D]2 [D,D]3 [E,C][F,D][F,D] | [G,D]2 [G,D]3 [=G,B,][G,C][G,D] | %16
 [A,D]2 A,2 [A,E][A,C][A,D][A,E] | [D,D]4 z |] %18
V:4
 x3 | x8 | x8 | x8 | x8 | x8 | x8 | x8 | A,4- x || x3 | x8 | x8 | x8 | x8 | x8 | x8 | x2 A,2 x4 | %17
 x5 |] %18

